X:566
T: ICH GIENG EINMAL SPAZIERE
N: E0533A
O: Europa, Mitteleuropa, Deutschland, Hessen, Hanau; Dillenburg
R: Liebes - Lied
M: 2/4
L: 1/8
K: G
D | GGGD | G2GD | G2z
d | dddd | e2e
d | ccce | d2z
B | BBBB | c2cd | B2z

@@@ Tune index: 4216
